static/img/home/logo black.svg

<svg fill="none" viewBox=".49 .74 103.39 32.13" xmlns="http://www.w3.org/2000/svg"><g fill="#000"><path d="m40.6396 18.0084c0-1.7344 1.0782-2.7344 2.5938-2.7344 1.4844 0 2.3594.9453 2.3594 2.5625v7.2031h2.8281v-7.6406c0-2.8985-1.6406-4.5156-4.1328-4.5156-1.8438 0-3.0156.8359-3.5703 2.1953h-.1407v-6.03909h-2.7656v15.99999h2.8281z"/><path d="m56.1762 25.274c2.7969 0 4.7188-1.3672 5.2188-3.4531l-2.6407-.2969c-.3828 1.0156-1.3203 1.5469-2.539 1.5469-1.8282 0-3.0391-1.2032-3.0625-3.2579h8.3593v-.8671c0-4.211-2.5312-6.0625-5.4843-6.0625-3.4375 0-5.6797 2.5234-5.6797 6.2265 0 3.7656 2.2109 6.1641 5.8281 6.1641zm-3.0156-7.3672c.0859-1.5313 1.2187-2.8203 2.9062-2.8203 1.625 0 2.7188 1.1875 2.7344 2.8203z"/><path d="m66.2929 9.03961h-2.8282v15.99999h2.8282z"/><path d="m68.7611 25.0396h2.8281v-12h-2.8281zm1.4218-13.7031c.8985 0 1.6328-.6875 1.6328-1.53126 0-.85157-.7343-1.53907-1.6328-1.53907-.9062 0-1.6406.6875-1.6406 1.53907 0 .84376.7344 1.53126 1.6406 1.53126z"/><path d="m81.7058 19.9927c0 1.8282-1.3047 2.7344-2.5547 2.7344-1.3593 0-2.2656-.9609-2.2656-2.4844v-7.2031h-2.8281v7.6406c0 2.8828 1.6406 4.5157 4 4.5157 1.7969 0 3.0625-.9454 3.6094-2.2891h.125v2.1328h2.7421v-12h-2.8281z"/><path d="m87.0021 25.0396h2.8282v-7.2969c0-1.4765.9843-2.4765 2.2031-2.4765 1.1953 0 2.0156.8047 2.0156 2.039v7.7344h2.7735v-7.4844c0-1.3515.8046-2.289 2.1718-2.289 1.1407 0 2.0467.6718 2.0467 2.1562v7.6172h2.836v-8.0547c0-2.6797-1.547-4.1015-3.75-4.1015-1.742 0-3.0702.8593-3.6014 2.1953h-.125c-.461-1.3594-1.625-2.1953-3.2422-2.1953-1.6094 0-2.8125.8281-3.3125 2.1953h-.1406v-2.0391h-2.7032z"/><path d="m20.8292 9.09193c.9355-.93542 2.4587-.93542 3.3943 0 .9356.93547.9356 2.45837 0 3.39377-.5419.5418-1.2836.7871-2.0366.6787-.0342-.0057-.0742-.0057-.1084 0-.2225-.0285-.4564 0-.6789.1027-.3137.1426-.5362.405-.6446.7073-.1084.2966-.1027.6331.0399.9354.8044 1.7397.4336 3.8215-.9242 5.179-1.3577 1.3575-3.44 1.7283-5.1799.9241-.3138-.1426-.6504-.1483-.9527-.0343-.2967.1084-.5477.3309-.6903.6389-.0913.1996-.1255.4049-.1141.6103-.0057.0399-.0057.0798 0 .1197.1255.7644-.1255 1.5458-.6732 2.0933-.9356.9355-2.45874.9355-3.39433 0-.45638-.4563-.70169-1.0552-.70169-1.6997 0-.6388.25101-1.2434.70169-1.6997.54196-.5419 1.28363-.7871 2.03663-.6788h.0399c.0799.0171.1598.0285.2453.0285.1769 0 .3537-.0342.5192-.114.308-.1426.5248-.3936.6389-.6845.1141-.3023.1141-.6445-.0342-.9582-.8044-1.7397-.4336-3.8216.9242-5.1791 1.3577-1.3575 3.44-1.7282 5.1799-.924.3081.1426.6504.1483.947.0399.2967-.1083.5534-.3308.696-.6388.1084-.2395.1369-.4962.097-.7415v-.0057c-.1255-.7643.1255-1.54571.6732-2.09327zm-2.3732 9.58237c1.0382-1.0381 1.0382-2.7207 0-3.7588-1.0383-1.0381-2.7212-1.0381-3.7595 0s-1.0383 2.7207 0 3.7588 2.7212 1.0381 3.7595 0zm-1.8997-17.93843c8.8709 0 16.0647 7.19249 16.0647 16.06193 0 8.8694-7.1881 16.0675-16.0647 16.0675-8.87673 0-16.064784-7.1924-16.064784-16.0675 0-8.87515 7.193764-16.06193 16.064784-16.06193zm8.5629 12.64533c1.4205-1.4203 1.4205-3.71889 0-5.13914-1.4205-1.42024-3.7196-1.42024-5.1401 0-.5248.52475-.8557 1.17499-.9926 1.85374-2.5729-.96965-5.528-.35364-7.4961 1.6142-1.96817 1.9678-2.58429 4.9223-1.60877 7.5005-.68458.1369-1.33493.4677-1.86547.9981-1.4205 1.4203-1.4205 3.7189 0 5.1391 1.42049 1.4203 3.71954 1.4203 5.14004 0 .5305-.5304.8671-1.192.9983-1.8765.7987.2966 1.6316.4449 2.4588.4449 1.8427 0 3.6625-.713 5.0145-2.0648 1.9568-1.9564 2.5786-4.8938 1.6259-7.4662.6789-.1426 1.3349-.4735 1.8655-1.0039z"/></g></svg>

<svg width="104" height="33" viewBox="0 0 104 33" fill="none" xmlns="http://www.w3.org/2000/svg">
<path d="M40.6396 18.0084C40.6396 16.274 41.7178 15.274 43.2334 15.274C44.7178 15.274 45.5928 16.2193 45.5928 17.8365V25.0396H48.4209V17.399C48.4209 14.5005 46.7803 12.8834 44.2881 12.8834C42.4443 12.8834 41.2725 13.7193 40.7178 15.0787H40.5771V9.03961H37.8115V25.0396H40.6396V18.0084Z" fill="black"/>
<path d="M56.1762 25.274C58.9731 25.274 60.895 23.9068 61.395 21.8209L58.7543 21.524C58.3715 22.5396 57.434 23.0709 56.2153 23.0709C54.3871 23.0709 53.1762 21.8677 53.1528 19.813H61.5121V18.9459C61.5121 14.7349 58.9809 12.8834 56.0278 12.8834C52.5903 12.8834 50.3481 15.4068 50.3481 19.1099C50.3481 22.8755 52.559 25.274 56.1762 25.274ZM53.1606 17.9068C53.2465 16.3755 54.3793 15.0865 56.0668 15.0865C57.6918 15.0865 58.7856 16.274 58.8012 17.9068H53.1606Z" fill="black"/>
<path d="M66.2929 9.03961H63.4647V25.0396H66.2929V9.03961Z" fill="black"/>
<path d="M68.7611 25.0396H71.5892V13.0396H68.7611V25.0396ZM70.1829 11.3365C71.0814 11.3365 71.8157 10.649 71.8157 9.80524C71.8157 8.95367 71.0814 8.26617 70.1829 8.26617C69.2767 8.26617 68.5423 8.95367 68.5423 9.80524C68.5423 10.649 69.2767 11.3365 70.1829 11.3365Z" fill="black"/>
<path d="M81.7058 19.9927C81.7058 21.8209 80.4011 22.7271 79.1511 22.7271C77.7918 22.7271 76.8855 21.7662 76.8855 20.2427V13.0396H74.0574V20.6802C74.0574 23.563 75.698 25.1959 78.0574 25.1959C79.8543 25.1959 81.1199 24.2505 81.6668 22.9068H81.7918V25.0396H84.5339V13.0396H81.7058V19.9927Z" fill="black"/>
<path d="M87.0021 25.0396H89.8303V17.7427C89.8303 16.2662 90.8146 15.2662 92.0334 15.2662C93.2287 15.2662 94.049 16.0709 94.049 17.3052V25.0396H96.8225V17.5552C96.8225 16.2037 97.6271 15.2662 98.9943 15.2662C100.135 15.2662 101.041 15.938 101.041 17.4224V25.0396H103.877V16.9849C103.877 14.3052 102.33 12.8834 100.127 12.8834C98.385 12.8834 97.0568 13.7427 96.5256 15.0787H96.4006C95.9396 13.7193 94.7756 12.8834 93.1584 12.8834C91.549 12.8834 90.3459 13.7115 89.8459 15.0787H89.7053V13.0396H87.0021V25.0396Z" fill="black"/>
<path d="M20.8292 9.09193C21.7647 8.15651 23.2879 8.15651 24.2235 9.09193C25.1591 10.0274 25.1591 11.5503 24.2235 12.4857C23.6816 13.0275 22.9399 13.2728 22.1869 13.1644C22.1527 13.1587 22.1127 13.1587 22.0785 13.1644C21.856 13.1359 21.6221 13.1644 21.3996 13.2671C21.0859 13.4097 20.8634 13.6721 20.755 13.9744C20.6466 14.271 20.6523 14.6075 20.7949 14.9098C21.5993 16.6495 21.2285 18.7313 19.8707 20.0888C18.513 21.4463 16.4307 21.8171 14.6908 21.0129C14.377 20.8703 14.0404 20.8646 13.7381 20.9786C13.4414 21.087 13.1904 21.3095 13.0478 21.6175C12.9565 21.8171 12.9223 22.0224 12.9337 22.2278C12.928 22.2677 12.928 22.3076 12.9337 22.3475C13.0592 23.1119 12.8082 23.8933 12.2605 24.4408C11.3249 25.3763 9.80176 25.3763 8.86617 24.4408C8.40979 23.9845 8.16448 23.3856 8.16448 22.7411C8.16448 22.1023 8.41549 21.4977 8.86617 21.0414C9.40813 20.4995 10.1498 20.2543 10.9028 20.3626C10.9142 20.3626 10.9256 20.3626 10.9427 20.3626C11.0226 20.3797 11.1025 20.3911 11.188 20.3911C11.3649 20.3911 11.5417 20.3569 11.7072 20.2771C12.0152 20.1345 12.232 19.8835 12.3461 19.5926C12.4602 19.2903 12.4602 18.9481 12.3119 18.6344C11.5075 16.8947 11.8783 14.8128 13.2361 13.4553C14.5938 12.0978 16.6761 11.7271 18.416 12.5313C18.7241 12.6739 19.0664 12.6796 19.363 12.5712C19.6597 12.4629 19.9164 12.2404 20.059 11.9324C20.1674 11.6929 20.1959 11.4362 20.156 11.1909V11.1852C20.0305 10.4209 20.2815 9.63949 20.8292 9.09193ZM18.456 18.6743C19.4942 17.6362 19.4942 15.9536 18.456 14.9155C17.4177 13.8774 15.7348 13.8774 14.6965 14.9155C13.6582 15.9536 13.6582 17.6362 14.6965 18.6743C15.7348 19.7124 17.4177 19.7124 18.456 18.6743ZM16.5563 0.73587C25.4272 0.73587 32.621 7.92836 32.621 16.7978C32.621 25.6672 25.4329 32.8653 16.5563 32.8653C7.67957 32.8653 0.491516 25.6729 0.491516 16.7978C0.491516 7.92265 7.68528 0.73587 16.5563 0.73587ZM25.1192 13.3812C26.5397 11.9609 26.5397 9.66231 25.1192 8.24206C23.6987 6.82182 21.3996 6.82182 19.9791 8.24206C19.4543 8.76681 19.1234 9.41705 18.9865 10.0958C16.4136 9.12615 13.4585 9.74216 11.4904 11.71C9.52223 13.6778 8.90611 16.6323 9.88163 19.2105C9.19705 19.3474 8.5467 19.6782 8.01616 20.2086C6.59566 21.6289 6.59566 23.9275 8.01616 25.3477C9.43665 26.768 11.7357 26.768 13.1562 25.3477C13.6867 24.8173 14.0233 24.1557 14.1545 23.4712C14.9532 23.7678 15.7861 23.9161 16.6133 23.9161C18.456 23.9161 20.2758 23.2031 21.6278 21.8513C23.5846 19.8949 24.2064 16.9575 23.2537 14.3851C23.9326 14.2425 24.5886 13.9116 25.1192 13.3812Z" fill="black"/>
</svg>
